Newaita-dark/apps/16/libreoffice-impress.svg

<?xml version="1.0" encoding="UTF-8"?>
<svg xmlns="http://www.w3.org/2000/svg" xmlns:xlink="http://www.w3.org/1999/xlink" width="16pt" height="16pt" viewBox="0 0 16 16" version="1.1">
<defs>
<linearGradient id="linear0" gradientUnits="userSpaceOnUse" x1="254" y1="233.5" x2="254" y2="254.666672" gradientTransform="matrix(0.031253,0,0,0.031253,-0.00000190753,6.719393)">
<stop offset="0" style="stop-color:rgb(0%,0%,0%);stop-opacity:0.27451;"/>
<stop offset="1" style="stop-color:rgb(0%,0%,0%);stop-opacity:0;"/>
</linearGradient>
<radialGradient id="radial0" gradientUnits="userSpaceOnUse" cx="450.908936" cy="189.579361" fx="450.908936" fy="189.579361" r="21.166656" gradientTransform="matrix(0.0000000870852,-0.0390662,-0.0703192,-0.0000000507693,24.411523,31.797666)">
<stop offset="0" style="stop-color:rgb(0%,0%,0%);stop-opacity:0.313725;"/>
<stop offset="0.222222" style="stop-color:rgb(0%,0%,0%);stop-opacity:0.27451;"/>
<stop offset="1" style="stop-color:rgb(0%,0%,0%);stop-opacity:0;"/>
</radialGradient>
<radialGradient id="radial1" gradientUnits="userSpaceOnUse" cx="450.908936" cy="189.579361" fx="450.908936" fy="189.579361" r="21.166656" gradientTransform="matrix(-0.0000000870852,0.0390662,0.0703192,0.0000000507693,-8.865766,-3.763739)">
<stop offset="0" style="stop-color:rgb(0%,0%,0%);stop-opacity:0.313725;"/>
<stop offset="0.222222" style="stop-color:rgb(0%,0%,0%);stop-opacity:0.27451;"/>
<stop offset="1" style="stop-color:rgb(0%,0%,0%);stop-opacity:0;"/>
</radialGradient>
<radialGradient id="radial2" gradientUnits="userSpaceOnUse" cx="450.908936" cy="189.579361" fx="450.908936" fy="189.579361" r="21.166656" gradientTransform="matrix(-0.0000000870852,-0.0390662,0.0703192,-0.0000000507693,-8.865766,31.797666)">
<stop offset="0" style="stop-color:rgb(0%,0%,0%);stop-opacity:0.313725;"/>
<stop offset="0.222222" style="stop-color:rgb(0%,0%,0%);stop-opacity:0.27451;"/>
<stop offset="1" style="stop-color:rgb(0%,0%,0%);stop-opacity:0;"/>
</radialGradient>
<radialGradient id="radial3" gradientUnits="userSpaceOnUse" cx="450.908936" cy="189.579361" fx="450.908936" fy="189.579361" r="21.166656" gradientTransform="matrix(0.0000000870852,0.0390662,-0.0703192,0.0000000507693,24.411522,-3.76374)">
<stop offset="0" style="stop-color:rgb(0%,0%,0%);stop-opacity:0.313725;"/>
<stop offset="0.222222" style="stop-color:rgb(0%,0%,0%);stop-opacity:0.27451;"/>
<stop offset="1" style="stop-color:rgb(0%,0%,0%);stop-opacity:0;"/>
</radialGradient>
<filter id="alpha" filterUnits="objectBoundingBox" x="0%" y="0%" width="100%" height="100%">
  <feColorMatrix type="matrix" in="SourceGraphic" values="0 0 0 0 1 0 0 0 0 1 0 0 0 0 1 0 0 0 1 0"/>
</filter>
<mask id="mask0">
  <g filter="url(#alpha)">
<rect x="0" y="0" width="16" height="16" style="fill:rgb(0%,0%,0%);fill-opacity:0.988235;stroke:none;"/>
  </g>
</mask>
<linearGradient id="linear1" gradientUnits="userSpaceOnUse" x1="940" y1="1695.118164" x2="940" y2="175.118118" gradientTransform="matrix(0.00826902,0,0,0.00826902,0,0)">
<stop offset="0" style="stop-color:rgb(93.333333%,93.333333%,93.333333%);stop-opacity:1;"/>
<stop offset="1" style="stop-color:rgb(96.078431%,96.078431%,96.078431%);stop-opacity:1;"/>
</linearGradient>
<clipPath id="clip1">
  <rect x="0" y="0" width="16" height="16"/>
</clipPath>
<g id="surface5" clip-path="url(#clip1)">
<path style=" stroke:none;fill-rule:nonzero;fill:url(#linear1);" d="M 3.636719 1.449219 C 3.273438 1.449219 2.976562 1.742188 2.976562 2.109375 L 2.976562 13.355469 C 2.976562 13.722656 3.273438 14.015625 3.636719 14.015625 L 11.90625 14.015625 C 12.273438 14.015625 12.570312 13.722656 12.570312 13.355469 L 12.570312 4.425781 L 9.59375 1.449219 Z M 10.253906 1.449219 L 12.570312 3.761719 L 12.570312 2.109375 C 12.570312 1.742188 12.273438 1.449219 11.90625 1.449219 Z M 10.253906 1.449219 "/>
</g>
<mask id="mask1">
  <g filter="url(#alpha)">
<rect x="0" y="0" width="16" height="16" style="fill:rgb(0%,0%,0%);fill-opacity:0.988235;stroke:none;"/>
  </g>
</mask>
<linearGradient id="linear2" gradientUnits="userSpaceOnUse" x1="940" y1="1695.118164" x2="940" y2="175.118118" gradientTransform="matrix(0.00826902,0,0,0.00826902,0,0)">
<stop offset="0" style="stop-color:rgb(100%,43.921569%,26.27451%);stop-opacity:1;"/>
<stop offset="1" style="stop-color:rgb(100%,54.117647%,39.607843%);stop-opacity:1;"/>
</linearGradient>
<clipPath id="clip2">
  <rect x="0" y="0" width="16" height="16"/>
</clipPath>
<g id="surface8" clip-path="url(#clip2)">
<path style=" stroke:none;fill-rule:nonzero;fill:url(#linear2);" d="M 10.253906 1.449219 L 12.570312 3.761719 L 12.570312 2.109375 C 12.570312 1.742188 12.273438 1.449219 11.90625 1.449219 Z M 10.253906 1.449219 "/>
</g>
<mask id="mask2">
  <g filter="url(#alpha)">
<rect x="0" y="0" width="16" height="16" style="fill:rgb(0%,0%,0%);fill-opacity:0.988235;stroke:none;"/>
  </g>
</mask>
<clipPath id="clip3">
  <rect x="0" y="0" width="16" height="16"/>
</clipPath>
<g id="surface11" clip-path="url(#clip3)">
<path style=" stroke:none;fill-rule:nonzero;fill:rgb(100%,100%,100%);fill-opacity:0.392157;" d="M 3.636719 1.449219 C 3.273438 1.449219 2.976562 1.742188 2.976562 2.109375 L 2.976562 2.273438 C 2.976562 1.910156 3.273438 1.613281 3.636719 1.613281 L 9.59375 1.613281 L 12.570312 4.589844 L 12.570312 4.425781 L 9.59375 1.449219 Z M 10.253906 1.449219 L 10.417969 1.613281 L 11.90625 1.613281 C 12.273438 1.613281 12.570312 1.910156 12.570312 2.273438 L 12.570312 2.109375 C 12.570312 1.742188 12.273438 1.449219 11.90625 1.449219 Z M 10.253906 1.449219 "/>
</g>
<mask id="mask3">
  <g filter="url(#alpha)">
<rect x="0" y="0" width="16" height="16" style="fill:rgb(0%,0%,0%);fill-opacity:0.988235;stroke:none;"/>
  </g>
</mask>
<clipPath id="clip4">
  <rect x="0" y="0" width="16" height="16"/>
</clipPath>
<g id="surface14" clip-path="url(#clip4)">
<path style=" stroke:none;fill-rule:nonzero;fill:rgb(0%,0%,0%);fill-opacity:0.235294;" d="M 10.253906 1.449219 L 12.570312 3.761719 L 12.570312 3.519531 L 10.5 1.449219 Z M 2.976562 13.109375 L 2.976562 13.355469 C 2.976562 13.722656 3.273438 14.015625 3.636719 14.015625 L 11.90625 14.015625 C 12.273438 14.015625 12.570312 13.722656 12.570312 13.355469 L 12.570312 13.109375 C 12.570312 13.476562 12.273438 13.773438 11.90625 13.773438 L 3.636719 13.773438 C 3.273438 13.773438 2.976562 13.476562 2.976562 13.109375 Z M 2.976562 13.109375 "/>
</g>
<mask id="mask4">
  <g filter="url(#alpha)">
<rect x="0" y="0" width="16" height="16" style="fill:rgb(0%,0%,0%);fill-opacity:0.988235;stroke:none;"/>
  </g>
</mask>
<clipPath id="clip5">
  <rect x="0" y="0" width="16" height="16"/>
</clipPath>
<g id="surface17" clip-path="url(#clip5)">
<path style=" stroke:none;fill-rule:nonzero;fill:rgb(12.941177%,12.941177%,12.941177%);fill-opacity:1;" d="M 3.636719 1.402344 C 3.246094 1.402344 2.929688 1.71875 2.929688 2.109375 L 2.929688 13.355469 C 2.929688 13.746094 3.246094 14.0625 3.636719 14.0625 L 11.90625 14.0625 C 12.300781 14.0625 12.617188 13.746094 12.617188 13.355469 L 12.617188 4.425781 C 12.617188 4.414062 12.609375 4.402344 12.601562 4.390625 L 9.625 1.414062 C 9.617188 1.40625 9.605469 1.402344 9.59375 1.402344 Z M 10.253906 1.402344 C 10.234375 1.402344 10.21875 1.414062 10.210938 1.429688 C 10.203125 1.449219 10.207031 1.46875 10.21875 1.480469 L 12.535156 3.796875 C 12.550781 3.808594 12.570312 3.8125 12.585938 3.808594 C 12.605469 3.800781 12.617188 3.78125 12.617188 3.761719 L 12.617188 2.109375 C 12.617188 1.71875 12.300781 1.402344 11.90625 1.402344 Z M 3.636719 1.496094 L 9.574219 1.496094 L 12.523438 4.445312 L 12.523438 13.355469 C 12.523438 13.695312 12.25 13.96875 11.90625 13.96875 L 3.636719 13.96875 C 3.296875 13.96875 3.023438 13.695312 3.023438 13.355469 L 3.023438 2.109375 C 3.023438 1.769531 3.296875 1.496094 3.636719 1.496094 Z M 10.367188 1.496094 L 11.90625 1.496094 C 12.25 1.496094 12.523438 1.769531 12.523438 2.109375 L 12.523438 3.648438 Z M 10.367188 1.496094 "/>
</g>
<linearGradient id="linear3" gradientUnits="userSpaceOnUse" x1="940" y1="1215.118164" x2="940" y2="615.118103" gradientTransform="matrix(0.264583,0,0,0.264583,0.00000025128,-214.999756)">
<stop offset="0" style="stop-color:rgb(100%,43.921569%,26.27451%);stop-opacity:1;"/>
<stop offset="1" style="stop-color:rgb(100%,54.117647%,39.607843%);stop-opacity:1;"/>
</linearGradient>
<linearGradient id="linear4" gradientUnits="userSpaceOnUse" x1="296.333344" y1="106.499763" x2="296.333344" y2="-62.833332" gradientTransform="matrix(1,0,0,1,10.58333,-10.583336)">
<stop offset="0" style="stop-color:rgb(100%,43.921569%,26.27451%);stop-opacity:1;"/>
<stop offset="1" style="stop-color:rgb(100%,54.117647%,39.607843%);stop-opacity:1;"/>
</linearGradient>
</defs>
<g id="surface1">
<path style=" stroke:none;fill-rule:nonzero;fill:url(#linear0);" d="M 4.300781 14.015625 L 11.246094 14.015625 L 11.246094 14.679688 L 4.300781 14.679688 Z M 4.300781 14.015625 "/>
<path style=" stroke:none;fill-rule:nonzero;fill:url(#radial0);" d="M 11.246094 14.015625 L 12.570312 14.015625 L 12.570312 13.355469 L 11.246094 13.355469 Z M 11.246094 14.015625 "/>
<path style=" stroke:none;fill-rule:nonzero;fill:url(#radial1);" d="M 4.300781 14.015625 L 2.976562 14.015625 L 2.976562 14.679688 L 4.300781 14.679688 Z M 4.300781 14.015625 "/>
<path style=" stroke:none;fill-rule:nonzero;fill:url(#radial2);" d="M 4.300781 14.015625 L 2.976562 14.015625 L 2.976562 13.355469 L 4.300781 13.355469 Z M 4.300781 14.015625 "/>
<path style=" stroke:none;fill-rule:nonzero;fill:url(#radial3);" d="M 11.246094 14.015625 L 12.570312 14.015625 L 12.570312 14.679688 L 11.246094 14.679688 Z M 11.246094 14.015625 "/>
<use xlink:href="#surface5" mask="url(#mask0)"/>
<use xlink:href="#surface8" mask="url(#mask1)"/>
<use xlink:href="#surface11" mask="url(#mask2)"/>
<use xlink:href="#surface14" mask="url(#mask3)"/>
<use xlink:href="#surface17" mask="url(#mask4)"/>
<path style="fill-rule:nonzero;fill:url(#linear3);stroke-width:3;stroke-linecap:round;stroke-linejoin:round;stroke:rgb(12.941177%,12.941177%,12.941177%);stroke-opacity:1;stroke-miterlimit:4;" d="M 248.726248 -52.26554 C 204.730449 -52.26554 169.358827 -16.893918 169.358827 27.10188 C 169.358827 71.097679 204.730449 106.469301 248.726248 106.469301 C 292.722046 106.469301 328.093669 71.097679 328.093669 27.10188 L 248.726248 27.10188 Z M 248.726248 -52.26554 " transform="matrix(0.031253,0,0,0.031253,0,6.719392)"/>
<path style="fill-rule:nonzero;fill:url(#linear4);stroke-width:3;stroke-linecap:round;stroke-linejoin:round;stroke:rgb(12.941177%,12.941177%,12.941177%);stroke-opacity:1;stroke-miterlimit:4;" d="M 269.849231 -73.388523 L 269.849231 5.978898 L 349.216651 5.978898 C 349.216651 -38.016901 313.845029 -73.388523 269.849231 -73.388523 Z M 269.849231 -73.388523 " transform="matrix(0.031253,0,0,0.031253,0,6.719392)"/>
</g>
</svg>

<svg xmlns="http://www.w3.org/2000/svg" xmlns:xlink="http://www.w3.org/1999/xlink" width="16pt" height="16pt" viewBox="0 0 16 16"><defs><linearGradient id="i" gradientUnits="userSpaceOnUse" x1="254" y1="233.5" x2="254" y2="254.667" gradientTransform="matrix(.03125 0 0 .03125 0 6.72)"><stop offset="0" stop-opacity=".275"/><stop offset="1" stop-opacity="0"/></linearGradient><radialGradient id="j" gradientUnits="userSpaceOnUse" cx="450.909" cy="189.579" fx="450.909" fy="189.579" r="21.167" gradientTransform="matrix(0 -.03907 -.07032 0 24.412 31.798)"><stop offset="0" stop-opacity=".314"/><stop offset=".222" stop-opacity=".275"/><stop offset="1" stop-opacity="0"/></radialGradient><radialGradient id="k" gradientUnits="userSpaceOnUse" cx="450.909" cy="189.579" fx="450.909" fy="189.579" r="21.167" gradientTransform="matrix(0 .03907 .07032 0 -8.866 -3.764)"><stop offset="0" stop-opacity=".314"/><stop offset=".222" stop-opacity=".275"/><stop offset="1" stop-opacity="0"/></radialGradient><radialGradient id="l" gradientUnits="userSpaceOnUse" cx="450.909" cy="189.579" fx="450.909" fy="189.579" r="21.167" gradientTransform="matrix(0 -.03907 .07032 0 -8.866 31.798)"><stop offset="0" stop-opacity=".314"/><stop offset=".222" stop-opacity=".275"/><stop offset="1" stop-opacity="0"/></radialGradient><radialGradient id="m" gradientUnits="userSpaceOnUse" cx="450.909" cy="189.579" fx="450.909" fy="189.579" r="21.167" gradientTransform="matrix(0 .03907 -.07032 0 24.412 -3.764)"><stop offset="0" stop-opacity=".314"/><stop offset=".222" stop-opacity=".275"/><stop offset="1" stop-opacity="0"/></radialGradient><filter id="a" filterUnits="objectBoundingBox" x="0%" y="0%" width="100%" height="100%"><feColorMatrix in="SourceGraphic" values="0 0 0 0 1 0 0 0 0 1 0 0 0 0 1 0 0 0 1 0"/></filter><mask id="o"><path fill-opacity=".988" d="M0 0h16v16H0z" filter="url(#a)"/></mask><linearGradient id="c" gradientUnits="userSpaceOnUse" x1="940" y1="1695.118" x2="940" y2="175.118" gradientTransform="rotate(.882) scale(.00827)"><stop offset="0" stop-color="#eee"/><stop offset="1" stop-color="#f5f5f5"/></linearGradient><clipPath id="b"><path d="M0 0h16v16H0z"/></clipPath><g id="n" clip-path="url(#b)"><path d="M3.637 1.45a.66.66 0 0 0-.66.66v11.245c0 .368.296.66.66.66h8.27a.66.66 0 0 0 .663-.66v-8.93L9.594 1.45zm6.617 0l2.316 2.312V2.109a.66.66 0 0 0-.664-.66zm0 0" fill="url(#c)"/></g><mask id="q"><path fill-opacity=".988" d="M0 0h16v16H0z" filter="url(#a)"/></mask><linearGradient id="e" gradientUnits="userSpaceOnUse" x1="940" y1="1695.118" x2="940" y2="175.118" gradientTransform="rotate(.882) scale(.00827)"><stop offset="0" stop-color="#ff7043"/><stop offset="1" stop-color="#ff8a65"/></linearGradient><clipPath id="d"><path d="M0 0h16v16H0z"/></clipPath><g id="p" clip-path="url(#d)"><path d="M10.254 1.45l2.316 2.312V2.109a.66.66 0 0 0-.664-.66zm0 0" fill="url(#e)"/></g><mask id="s"><path fill-opacity=".988" d="M0 0h16v16H0z" filter="url(#a)"/></mask><clipPath id="f"><path d="M0 0h16v16H0z"/></clipPath><g id="r" clip-path="url(#f)"><path d="M3.637 1.45a.66.66 0 0 0-.66.66v.163c0-.363.296-.66.66-.66h5.957L12.57 4.59v-.164L9.594 1.449zm6.617 0l.164.163h1.488c.367 0 .664.297.664.66V2.11a.66.66 0 0 0-.664-.66zm0 0" fill="#fff" fill-opacity=".392"/></g><mask id="u"><path fill-opacity=".988" d="M0 0h16v16H0z" filter="url(#a)"/></mask><clipPath id="g"><path d="M0 0h16v16H0z"/></clipPath><g id="t" clip-path="url(#g)"><path d="M10.254 1.45l2.316 2.312V3.52L10.5 1.45zM2.977 13.11v.245c0 .368.296.66.66.66h8.27a.66.66 0 0 0 .663-.66v-.246a.664.664 0 0 1-.664.664h-8.27a.663.663 0 0 1-.66-.664zm0 0" fill-opacity=".235"/></g><mask id="w"><path fill-opacity=".988" d="M0 0h16v16H0z" filter="url(#a)"/></mask><clipPath id="h"><path d="M0 0h16v16H0z"/></clipPath><g id="v" clip-path="url(#h)"><path d="M3.637 1.402a.707.707 0 0 0-.707.707v11.246c0 .391.316.707.707.707h8.27c.394 0 .71-.316.71-.707v-8.93c0-.01-.008-.023-.015-.034L9.625 1.414a.044.044 0 0 0-.031-.012zm6.617 0a.048.048 0 0 0-.043.028c-.008.02-.004.039.008.05l2.316 2.317a.062.062 0 0 0 .05.012.05.05 0 0 0 .032-.047V2.109a.708.708 0 0 0-.71-.707zm-6.617.094h5.937l2.95 2.95v8.91c0 .34-.274.613-.618.613h-8.27a.612.612 0 0 1-.613-.614V2.11c0-.34.274-.613.614-.613zm6.73 0h1.54c.343 0 .616.274.616.613v1.54zm0 0" fill="#212121"/></g><linearGradient id="x" gradientUnits="userSpaceOnUse" x1="940" y1="1215.118" x2="940" y2="615.118" gradientTransform="matrix(.26458 0 0 .26458 0 -215)"><stop offset="0" stop-color="#ff7043"/><stop offset="1" stop-color="#ff8a65"/></linearGradient><linearGradient id="y" gradientUnits="userSpaceOnUse" x1="296.333" y1="106.5" x2="296.333" y2="-62.833" gradientTransform="translate(10.583 -10.583)"><stop offset="0" stop-color="#ff7043"/><stop offset="1" stop-color="#ff8a65"/></linearGradient></defs><path d="M4.3 14.016h6.946v.664H4.301zm0 0" fill="url(#i)"/><path d="M11.246 14.016h1.324v-.66h-1.324zm0 0" fill="url(#j)"/><path d="M4.3 14.016H2.978v.664H4.3zm0 0" fill="url(#k)"/><path d="M4.3 14.016H2.978v-.66H4.3zm0 0" fill="url(#l)"/><path d="M11.246 14.016h1.324v.664h-1.324zm0 0" fill="url(#m)"/><use xlink:href="#n" mask="url(#o)"/><use xlink:href="#p" mask="url(#q)"/><use xlink:href="#r" mask="url(#s)"/><use xlink:href="#t" mask="url(#u)"/><use xlink:href="#v" mask="url(#w)"/><path d="M248.726-52.266c-43.996 0-79.367 35.372-79.367 79.368 0 43.996 35.371 79.367 79.367 79.367s79.368-35.371 79.368-79.367h-79.368zm0 0" transform="matrix(.03125 0 0 .03125 0 6.72)" fill="url(#x)" stroke-width="3" stroke-linecap="round" stroke-linejoin="round" stroke="#212121"/><path d="M269.85-73.389V5.98h79.367c0-43.996-35.372-79.368-79.368-79.368zm0 0" transform="matrix(.03125 0 0 .03125 0 6.72)" fill="url(#y)" stroke-width="3" stroke-linecap="round" stroke-linejoin="round" stroke="#212121"/></svg>
